dist/img/icons/socials/instagram.svg

<svg width="18" height="19" viewBox="0 0 18 19" fill="none" xmlns="http://www.w3.org/2000/svg">
<g clip-path="url(#clip0)">
<path d="M17.9454 6.12531C17.9016 5.1673 17.7494 4.51306 17.527 3.94067C17.3011 3.34013 16.9467 2.79617 16.4889 2.34656C16.0394 1.8887 15.4953 1.53426 14.8948 1.30821C14.3223 1.08588 13.6682 0.933853 12.7101 0.89032C11.7504 0.846375 11.4437 0.835938 8.99951 0.835938C6.55533 0.835938 6.24867 0.846375 5.28888 0.890045C4.33087 0.933853 3.67677 1.08601 3.10425 1.30849C2.50371 1.53439 1.95975 1.8887 1.51013 2.34656C1.05228 2.79604 0.69783 3.34 0.471786 3.94054C0.249451 4.51306 0.0974274 5.1673 0.053894 6.12517C0.00994873 7.0851 -0.000488281 7.39162 -0.000488281 9.8358C-0.000488281 12.2801 0.00994873 12.5868 0.053894 13.5466C0.0975647 14.5044 0.249725 15.1587 0.472198 15.7312C0.698105 16.3316 1.05241 16.8757 1.51027 17.3252C1.95975 17.783 2.50385 18.1373 3.10439 18.3633C3.67677 18.5859 4.33101 18.7379 5.28902 18.7817C6.24895 18.8255 6.55547 18.8358 8.99965 18.8358C11.4438 18.8358 11.7505 18.8255 12.7103 18.7817C13.6683 18.7379 14.3224 18.5859 14.8949 18.3633C16.1038 17.8958 17.0595 16.9401 17.527 15.7312C17.7496 15.1587 17.9016 14.5044 17.9454 13.5466C17.9891 12.5866 17.9995 12.2801 17.9995 9.83594C17.9995 7.39162 17.9891 7.0851 17.9454 6.12531ZM16.3253 13.4728C16.2854 14.3504 16.1387 14.8269 16.0155 15.144C15.7127 15.929 15.0924 16.5493 14.3074 16.8521C13.9903 16.9753 13.5138 17.1219 12.6363 17.1619C11.6875 17.2053 11.4028 17.2144 8.99951 17.2144C6.59612 17.2144 6.31157 17.2053 5.36263 17.1619C4.48523 17.1219 4.0087 16.9753 3.69147 16.8521C3.30063 16.7078 2.94701 16.4777 2.65669 16.1788C2.35773 15.8884 2.1277 15.535 1.98337 15.144C1.86018 14.8269 1.71352 14.3504 1.67355 13.4728C1.63029 12.5239 1.62109 12.2392 1.62109 9.83608C1.62109 7.43282 1.63029 7.14827 1.67355 6.19919C1.71365 5.32166 1.86018 4.84512 1.98337 4.52803C2.1277 4.13705 2.35786 3.78343 2.65669 3.49312C2.94701 3.19415 3.30063 2.96413 3.6916 2.81993C4.0087 2.69661 4.48523 2.55008 5.36276 2.50998C6.31171 2.46672 6.59639 2.45752 8.99951 2.45752H8.99937C11.4025 2.45752 11.6872 2.46672 12.6363 2.51012C13.5138 2.55008 13.9902 2.69675 14.3074 2.81993C14.6983 2.96426 15.0519 3.19429 15.3422 3.49312C15.6412 3.78343 15.8712 4.13705 16.0154 4.52803C16.1387 4.84512 16.2854 5.32166 16.3253 6.19919C16.3686 7.14813 16.3778 7.43282 16.3778 9.83594C16.3778 12.2392 16.3687 12.5237 16.3253 13.4728Z" fill="white"/>
<path d="M8.99934 5.21436C6.44695 5.21436 4.37781 7.28363 4.37781 9.83603C4.37781 12.3884 6.44695 14.4576 8.99934 14.4576C11.5519 14.4576 13.621 12.3884 13.621 9.83603C13.621 7.28363 11.5519 5.21436 8.99934 5.21436ZM8.99934 12.836C7.34261 12.8358 5.99939 11.4928 5.99953 9.83589C5.99953 8.17915 7.34261 6.83594 8.99948 6.83594C10.6564 6.83607 11.9994 8.17915 11.9994 9.83589C11.9994 11.4928 10.6562 12.836 8.99934 12.836Z" fill="white"/>
<path d="M14.8837 5.03175C14.8837 5.62817 14.4001 6.11171 13.8037 6.11171C13.2072 6.11171 12.7236 5.62817 12.7236 5.03175C12.7236 4.4352 13.2072 3.95166 13.8037 3.95166C14.4001 3.95166 14.8837 4.4352 14.8837 5.03175Z" fill="white"/>
</g>
<defs>
<clipPath id="clip0">
<rect width="18" height="18" fill="white" transform="translate(-0.000488281 0.835938)"/>
</clipPath>
</defs>
</svg>

<svg width="18" height="19" fill="none" xmlns="http://www.w3.org/2000/svg"><g clip-path="url(#clip0)" fill="#fff"><path d="M17.945 6.125c-.043-.958-.196-1.612-.418-2.184a4.412 4.412 0 00-1.038-1.594 4.413 4.413 0 00-1.594-1.039c-.573-.222-1.227-.374-2.185-.418C11.75.846 11.444.836 9 .836c-2.445 0-2.751.01-3.711.054-.958.044-1.612.196-2.185.418A4.41 4.41 0 001.51 2.347 4.405 4.405 0 00.472 3.94C.249 4.513.097 5.167.054 6.125.01 7.085 0 7.392 0 9.835c0 2.445.01 2.752.054 3.712.044.957.196 1.612.418 2.184.226.6.58 1.145 1.038 1.594.45.458.994.812 1.594 1.038.573.223 1.227.375 2.185.419.96.044 1.266.054 3.71.054 2.445 0 2.752-.01 3.711-.054.958-.044 1.612-.196 2.185-.419a4.602 4.602 0 002.632-2.632c.223-.572.375-1.227.418-2.184.044-.96.055-1.267.055-3.711s-.01-2.75-.055-3.71zm-1.62 7.348c-.04.877-.186 1.354-.31 1.671a2.98 2.98 0 01-1.708 1.708c-.317.123-.793.27-1.67.31-.95.043-1.234.052-3.637.052-2.404 0-2.688-.009-3.637-.052-.878-.04-1.354-.187-1.672-.31a2.79 2.79 0 01-1.034-.673 2.789 2.789 0 01-.674-1.035c-.123-.317-.27-.794-.31-1.671-.043-.95-.052-1.234-.052-3.637s.01-2.688.053-3.637c.04-.877.186-1.354.31-1.671a2.79 2.79 0 01.673-1.035 2.78 2.78 0 011.035-.673c.317-.123.793-.27 1.67-.31.95-.043 1.234-.052 3.638-.052 2.402 0 2.687.009 3.636.052.878.04 1.354.187 1.671.31a2.78 2.78 0 011.035.673c.3.29.53.644.673 1.035.124.317.27.794.31 1.671.044.95.053 1.234.053 3.637s-.01 2.688-.053 3.637z"/><path d="M9 5.214a4.622 4.622 0 100 9.244 4.622 4.622 0 000-9.244zm0 7.622a3 3 0 110-6 3 3 0 010 6zm5.884-7.804a1.08 1.08 0 11-2.16 0 1.08 1.08 0 012.16 0z"/></g><defs><clipPath id="clip0"><path fill="#fff" transform="translate(0 .836)" d="M0 0h18v18H0z"/></clipPath></defs></svg>
